app/assets/images/heroicons/micro/arrow-down-left.svg

<svg width="16" height="16" viewBox="0 0 16 16" fill="none" xmlns="http://www.w3.org/2000/svg">
<path fill-rule="evenodd" clip-rule="evenodd" d="M11.7803 4.21967C12.0732 4.51256 12.0732 4.98744 11.7803 5.28033L6.56066 10.5H10.25C10.6642 10.5 11 10.8358 11 11.25C11 11.6642 10.6642 12 10.25 12H4.75C4.33579 12 4 11.6642 4 11.25V5.75C4 5.33579 4.33579 5 4.75 5C5.16421 5 5.5 5.33579 5.5 5.75V9.43934L10.7197 4.21967C11.0126 3.92678 11.4874 3.92678 11.7803 4.21967Z" fill="#0F172A"/>
</svg>

<svg xmlns="http://www.w3.org/2000/svg" viewBox="0 0 16 16" fill="currentColor" aria-hidden="true" data-slot="icon">
  <path fill-rule="evenodd" d="M11.78 4.22a.75.75 0 0 1 0 1.06L6.56 10.5h3.69a.75.75 0 0 1 0 1.5h-5.5a.75.75 0 0 1-.75-.75v-5.5a.75.75 0 0 1 1.5 0v3.69l5.22-5.22a.75.75 0 0 1 1.06 0Z" clip-rule="evenodd"/>
</svg>
